X:1
T:Bonnie House of Airlie  "rpband"
M:C
L:1/8
Q:80
C:
S:4/4 March
K:HP
[| {g}A2{GdGe}AB{Gdc}d2{g}d3/2c/2 | \
{gBd}B{e}A{g}B/2d3/2{g}e2{g}((3def) | \
{g}A2-AB{Gdc}df{g}ed |
{gBd}B4{G}A2-AG | \
{g}A2{GdGe}AB{Gdc}d2{g}d3/2c/2 | \
{gBd}B{e}A{g}B/2d3/2{g}e2{g}((3def) |
{g}A2-AB{Gdc}df{g}ed | \
{gBd}B4{G}A2-Ad|] [ | \
{gef}e2{GdG}ef{ag}a2-af |
{gf}gf{g}ef{Gdc}d4 | \
{g}e2{GdG}ef{ag}a2-ag | \
{a}f2-fg/2f/2{gef}e2-ed |
{gef}e2{GdG}ef{ag}a2-af | \
{gf}g3/2f/2{g}ed{gef}e2{g}((3def) | \
{g}A2-AB{Gdc}df{g}ed |
{gBd}B4{G}A4|]
